src/components/00-materials/images-raw/IDCard.svg

<svg width="96" height="96" viewBox="0 0 96 96" fill="none" xmlns="http://www.w3.org/2000/svg">
<path d="M29.94 11C27.0012 10.9813 24.175 12.1289 22.0811 14.1909C19.9872 16.253 18.7964 19.0613 18.77 22V74C18.7964 76.9387 19.9872 79.747 22.0811 81.809C24.175 83.8711 27.0012 85.0186 29.94 85H66.06C68.9988 85.0186 71.825 83.8711 73.9189 81.809C76.0129 79.747 77.2036 76.9387 77.23 74V22C77.2036 19.0613 76.0129 16.253 73.9189 14.1909C71.825 12.1289 68.9988 10.9813 66.06 11H29.94ZM48.33 71H63.67H48.33ZM34.34 71H43H34.34ZM41.6 42.5C40.6113 42.4899 39.6526 42.8393 38.9021 43.4831C38.1517 44.1269 37.6605 45.0213 37.52 46L37 51C36.9528 51.3143 36.9758 51.6351 37.0674 51.9395C37.1591 52.2438 37.3171 52.524 37.53 52.76C37.7395 52.9952 37.9969 53.183 38.285 53.3106C38.573 53.4382 38.885 53.5028 39.2 53.5H56.76C57.0777 53.4985 57.3916 53.4301 57.681 53.2991C57.9705 53.1682 58.2291 52.9776 58.44 52.74C58.6572 52.5101 58.8203 52.2345 58.9172 51.9334C59.0141 51.6324 59.0424 51.3134 59 51L58.46 46C58.3155 45.023 57.8232 44.1311 57.0736 43.488C56.3241 42.845 55.3676 42.4942 54.38 42.5H41.6ZM48 27.08C47.0111 27.08 46.0444 27.3732 45.2222 27.9226C44.3999 28.472 43.759 29.2529 43.3806 30.1666C43.0022 31.0802 42.9032 32.0855 43.0961 33.0554C43.289 34.0253 43.7652 34.9163 44.4645 35.6155C45.1637 36.3148 46.0546 36.791 47.0246 36.9839C47.9945 37.1768 48.9998 37.0778 49.9134 36.6994C50.8271 36.3209 51.6079 35.6801 52.1574 34.8578C52.7068 34.0356 53 33.0689 53 32.08C53 30.7539 52.4732 29.4821 51.5355 28.5444C50.5979 27.6068 49.3261 27.08 48 27.08V27.08Z" stroke="#00008F" stroke-width="2" stroke-miterlimit="10" stroke-linecap="round"/>
</svg>

<svg width="96" height="96" viewBox="0 0 96 96" fill="none" xmlns="http://www.w3.org/2000/svg"><path d="M29.94 11a11.1 11.1 0 00-11.17 11v52a11.1 11.1 0 0011.17 11h36.12a11.1 11.1 0 0011.17-11V22a11.1 11.1 0 00-11.17-11H29.94zm18.39 60h15.34-15.34zm-13.99 0H43h-8.66zm7.26-28.5a4.08 4.08 0 00-4.08 3.5L37 51a2.151 2.151 0 00.53 1.76 2.21 2.21 0 001.67.74h17.56a2.26 2.26 0 001.68-.76A2.12 2.12 0 0059 51l-.54-5a4.1 4.1 0 00-4.08-3.5H41.6zM48 27.08a5 5 0 100 10 5 5 0 000-10v0z" stroke="#00008F" stroke-width="2" stroke-miterlimit="10" stroke-linecap="round"/></svg>
